X:1955
T:Fig for a Kiss, A
O:england
N:IrTrad, 6/99
M:9/8
L:1/8
Q:100
R:slip jig
K:EDor
G2B E2B BAG|FGA DFA AGF|G2B E2B BAG|1(3Bcd B AGF E2F:|2 (3Bcd B AGF E3|
|g2e g2e edB|f2d dcd fed|1 g2e g2e edB|dBG GBd e2f:
|2 gfe fed edB|(3Bcd B AGF E2F||
<BODY><XMP>X: 1
T:Astleys Ride
M:4/4
L:1/8
Q:1/4=150
C:Trad
K:D
af|: d2 d2 d2 cd|e2 e2 e2 fe|dcBA B2 c2|defg agfe|
d2 d2 d2 cd |e2 e2 e2 fe|dcBA B2 c2 |1 d4 d2 af :|2 d4 d2 z A
|:f2 f2 f2 ef|g2 g2 gabg|e2 e2 e2 de|f2 f2 fgaf|
d2 d2 d2 cd |e2 e2 e2 fe|dcBA B2 c2 |1 d4 d2 zA :|2 d4 d2 z2||


